symbols/web/screenshot/materialsymbolsrounded/screenshot_wght700grad200_20px.svg

<svg xmlns="http://www.w3.org/2000/svg" height="20" width="20"><path d="M7.792 9.771q-.271 0-.459-.198-.187-.198-.187-.448V7.542q0-.459.323-.782.323-.322.781-.322h1.583q.25 0 .448.187t.198.458q0 .25-.198.448t-.448.198H8.438v1.396q0 .25-.198.448t-.448.198Zm2.375 3.791q-.25 0-.448-.187t-.198-.458q0-.25.198-.448t.448-.198h1.395v-1.396q0-.25.198-.448t.469-.198q.25 0 .438.198.187.198.187.448v1.583q0 .459-.323.782-.323.322-.781.322Zm-3.979 6.521q-1.209 0-2.063-.854-.854-.854-.854-2.062V2.833q0-1.208.854-2.062.854-.854 2.063-.854h7.624q1.209 0 2.063.854.854.854.854 2.062v14.334q0 1.208-.854 2.062-.854.854-2.063.854Zm0-5.666h7.624V5.583H6.188Zm0 1.958v.792h7.624v-.792Zm0-12.75h7.624v-.792H6.188Zm0-.792v.792-.792Zm0 14.334v-.792.792Z"/></svg>

<svg xmlns="http://www.w3.org/2000/svg" height="20" width="20"><path d="M7.792 9.771Q7.521 9.771 7.333 9.573Q7.146 9.375 7.146 9.125V7.542Q7.146 7.083 7.469 6.76Q7.792 6.438 8.25 6.438H9.833Q10.083 6.438 10.281 6.625Q10.479 6.812 10.479 7.083Q10.479 7.333 10.281 7.531Q10.083 7.729 9.833 7.729H8.438V9.125Q8.438 9.375 8.24 9.573Q8.042 9.771 7.792 9.771ZM10.167 13.562Q9.917 13.562 9.719 13.375Q9.521 13.188 9.521 12.917Q9.521 12.667 9.719 12.469Q9.917 12.271 10.167 12.271H11.562V10.875Q11.562 10.625 11.76 10.427Q11.958 10.229 12.229 10.229Q12.479 10.229 12.667 10.427Q12.854 10.625 12.854 10.875V12.458Q12.854 12.917 12.531 13.24Q12.208 13.562 11.75 13.562ZM6.188 20.083Q4.979 20.083 4.125 19.229Q3.271 18.375 3.271 17.167V2.833Q3.271 1.625 4.125 0.771Q4.979 -0.083 6.188 -0.083H13.812Q15.021 -0.083 15.875 0.771Q16.729 1.625 16.729 2.833V17.167Q16.729 18.375 15.875 19.229Q15.021 20.083 13.812 20.083ZM6.188 14.417H13.812V5.583H6.188ZM6.188 16.375V17.167Q6.188 17.167 6.188 17.167Q6.188 17.167 6.188 17.167H13.812Q13.812 17.167 13.812 17.167Q13.812 17.167 13.812 17.167V16.375ZM6.188 3.625H13.812V2.833Q13.812 2.833 13.812 2.833Q13.812 2.833 13.812 2.833H6.188Q6.188 2.833 6.188 2.833Q6.188 2.833 6.188 2.833ZM6.188 2.833Q6.188 2.833 6.188 2.833Q6.188 2.833 6.188 2.833V3.625V2.833Q6.188 2.833 6.188 2.833Q6.188 2.833 6.188 2.833ZM6.188 17.167Q6.188 17.167 6.188 17.167Q6.188 17.167 6.188 17.167V16.375V17.167Q6.188 17.167 6.188 17.167Q6.188 17.167 6.188 17.167Z"/></svg>
